X:180
T:RVW2/1/180 Dance Tune(Locke)
T:Sheepskins
S:tradtunes 2015-4-17 (< David Jacobs)
%%VWML:RVW2-1-180-0
F:http://www.vwml.org/record/RVW2/1/180
C:Transcribed by Simon Furey and Lewis Jones
L:1/8
Q:1/4=116
M:2/4
I:linebreak $
K:G
"^Allegro"\
B>A GB | c(3B/c/B/ A2 | B>A GB | AF D(3E/F/G/ |\
B>A GB | c>B A2 |$ B2 A>F | GG G2 |\
B(3c/B/A/ GB | c(3B/c/B/ A2 | B>A GB | AF D(3E/F/G/ |\
$ B>A GB | c>B A2 | B2 A>F | GG G2"^Fine" |]\
|:\
dgdg | fefe |$ dgdg | fg a2 |\
dgdg | fefe | d2 b>a | gg"^D.C. al Fine" g2 :|
